packages/bezier-icons/icons/megaphone.svg

<svg width="24" height="24" viewBox="0 0 24 24" fill="none" xmlns="http://www.w3.org/2000/svg">
<path fill-rule="evenodd" clip-rule="evenodd" d="M19.0002 17.1291L14.1942 14.3781C13.7622 14.1301 13.2712 14.0001 12.7732 14.0001H9.0002V7.97409H12.7732C13.2712 7.97409 13.7622 7.84309 14.1942 7.59609L19.0002 4.84509V17.1291ZM5.0002 14.0001H7.0002V7.97406H5.0002V14.0001ZM20.1382 2.01807C19.9962 2.01807 19.8502 2.05407 19.7112 2.13307L13.2012 5.86007C13.0702 5.93507 12.9232 5.97407 12.7732 5.97407H4.0002C3.4482 5.97407 3.0002 6.42207 3.0002 6.97407V15.0001C3.0002 15.5521 3.4482 16.0001 4.0002 16.0001H4.6682L3.7602 20.3991C3.6962 20.7091 3.9332 21.0001 4.2502 21.0001H6.5712C6.9502 21.0001 7.2782 20.7331 7.3542 20.3621L8.2552 16.0001H12.7732C12.9232 16.0001 13.0702 16.0391 13.2012 16.1141L19.7112 19.8411C19.8502 19.9201 19.9962 19.9561 20.1382 19.9561C20.5872 19.9561 21.0002 19.5961 21.0002 19.0941V2.88007C21.0002 2.37807 20.5872 2.01807 20.1382 2.01807Z" fill="#313234"/>
</svg>

<svg xmlns="http://www.w3.org/2000/svg" width="24" height="24" fill="none" viewBox="0 0 24 24"><path fill="#313234" fill-rule="evenodd" d="m19 17.13-4.806-2.752a2.86 2.86 0 0 0-1.42-.378H9V7.974h3.773c.498 0 .99-.13 1.421-.378L19 4.846zM5 14h2V7.974H5zM20.138 2.018a.86.86 0 0 0-.427.115l-6.51 3.727a.86.86 0 0 1-.428.114H4a1 1 0 0 0-1 1V15a1 1 0 0 0 1 1h.668l-.908 4.4a.5.5 0 0 0 .49.6h2.321a.8.8 0 0 0 .783-.638L8.255 16h4.518a.86.86 0 0 1 .428.114l6.51 3.727a.86.86 0 0 0 1.29-.747V2.88a.86.86 0 0 0-.863-.862" clip-rule="evenodd"/></svg>
